X:1
T:Se questa valle
T:Giovanni Animuccia
T:Source : Primo libro delle Laude spirituali a tre voci---Roma---A.Gardano---1583. Editor : André Vierendeels (20/11/17). Notes : Original clefs : G2, C1, C3 Editorial accidentals above the staff
T:Se questa valle
T:©
T:©
C:Giovanni Animuccia
Z:©
%%score [ 1 2 3 ]
L:1/8
Q:1/4=120
M:4/4
K:C
V:1 treble nm="Soprano 1" snm="S 1"
V:2 treble nm="Soprano 2" snm="S 2"
V:3 treble-8 nm="Tenor" snm="T"
V:1
"^1)" d4 c2 B2 | B4 B4 | d2 c2 B2 A2 | A4 A4 | A4 A2 A2 | A4 A2 A2 | B2 c2 d2 d2 | B4 B4 :: %8
w: Se que- sta|val- le|de mi- se- rie|pie- na,|par co- si'a-|me- na e|vag' hor che fia|quel- la,|
w: Se que- sto|tem- pe-|sto- so mar di|pian- to|e dol- ce|tan- to, à|chi con fra- gil|bar- co,|
 d4 c2 B2 | B4 B4 | d2 c2 B2 A2 | A4 A4 | G4 G2 G2 | A4 B4 | c8 | B4 B4 | A8 | G8 |] %18
w: be- a- ta'e|bel- la|re- gi- on di|pa- ce,|pa- tria ve-|ra- ce?|Pa-|tria ve-|ra-|ce?|
w: er- ran- do'il|var- ca,|qual gio- ia'e con-|for- to,|sa- ra nel|por- to?|Sa-|ra nel|por-|to?|
V:2
"^2)""^1)" G4 E2 G2 | G4 G4 | G3 G G2 G2 | ^F4 F4 | ^F4 F2 F2 | ^F4 F2 F2 |"^#""^#" D2 E2 F2 F2 | %7
w: Se que- sta|val- le|de- mi- se- rie|pie- na,|par co- si'a-|me- na e|vag' hor che fia|
w: Se gra- to'è'il|cam- p'o|ve'il cru- del ne-|mi- co,|per o- dio'an-|ti- co guer-|ra o- gn'hor ci|
 G4 G4 :: G4 E2 G2 | G4 G4 | G3 G G2 G2 | ^F4 F4 | E4 E2 G2 | ^F4 G4 | A8 | G4 G4 |"^#" F8 | G8 |] %18
w: quel- la,|be- a- ta'e|bel- la|re- gi- on di|pa- ce,|pa- tria ve-|ra- ce?|Pa-|tria ve-|ra-|ce?|
w: mo- ve,|che fia la|do- ve'al|vin- ci- tor si|do- na,|l'al- ta co-|ro- na?|L'al-|ta co-|ro-|na?|
V:3
"^3)""^1)""^4)""^5)" G4 A2 G2 | G4 G4 | G2 A2 B2 c2 | d4 d4 | d4 d2 d2 | d4 d2 d2 | B2 A2 d2 d2 | %7
w: Se que- sta|val- le|de mi- se- rie|pie- na,|par co- si'a-|me- na e|vag' hor che fia|
w: Deh la- sciam|dun- que|que- sta'os- cu- ra|Val- le,|il drit- to|cel- le del-|la vi- a smar-|
w: Pren- di la|Cro- c'e|drie- to'à me t'in-|vi- a,|io son la|vi- a, io|so- no'il ve- ro|
 G4 G4 :: G4 A2 G2 | G4 G4 | G2 A2 B2 c2 | d4 d4 | B4 B2 d2 | d4 G4 | F8 | G4 G4 | d8 | G8 |] %18
w: quel- la,|be- a- ta'e|bel- la|re- gi- on di|pa- ce,|pa- tria ve-|ra- ce?|Pa-|tria- ve-|ra-|ce?|
w: ri- ta,|Chri- sto ne'ad-|di- ta'e|di- ce'o Pel- le-|gri- no,|ec- co'il ca-|mi- no,|Ec-|co'il ca-|mi-|no.|
w: du- ce,|che ti con-|du- ce'al-|la Cit- ta su-|per- na|di glo- ria'e-|ter- na,|di|glo- ria'e-|ter-|na.|

